PortableApps/LibreOfficePortable/App/libreoffice/help/media/icon-themes/cmd/lc_addressbooksource.svg

<svg viewBox="0 0 24 24" xmlns="http://www.w3.org/2000/svg"><path d="m6 3h13v18h-13z" fill="#fff"/><path d="m5.5 2c-.277 0-.5.777-.5.5v1.5h-.5c-.277 0-.5.223-.5.5v3c0 .277.2620333.5.5.5h.5v6h-.5c-.277 0-.5.223-.5.5v3c0 .277.223.5.5.5h.5v3.5c0 .277.223.5.5.5h14c.277 0 .5-.223.5-.5v-19c0-.277-.223-.5-.5-.5zm.5 1h13v18h-13v-3.5-3-7-3z" fill="#808080"/></svg>

<svg viewBox="0 0 24 24" xmlns="http://www.w3.org/2000/svg">
  <path
     style="fill:#ffffff"
     d="M 6,3 H 19 V 21 H 6 Z"
     />
  <path
     style="fill:#808080"
     d="M 5.5,2 C 5.223,2 5,2.777 5,2.5 V 4 H 4.5 C 4.223,4 4,4.223 4,4.5 v 3 C 4,7.777 4.2620333,8 4.5,8 H 5 v 6 H 4.5 C 4.223,14 4,14.223 4,14.5 v 3 C 4,17.777 4.223,18 4.5,18 H 5 v 3.5 C 5,21.777 5.223,22 5.5,22 h 14 C 19.777,22 20,21.777 20,21.5 V 2.5 C 20,2.223 19.777,2 19.5,2 Z M 6,3 H 19 V 21 H 6 v -3.5 -3 -7 -3 z"
     />
</svg>
